Numix-Light/16/status/indicator-keyboard-Zh.svg

<?xml version="1.0" encoding="UTF-8" standalone="no"?>
<svg
   xmlns:dc="http://purl.org/dc/elements/1.1/"
   xmlns:cc="http://creativecommons.org/ns#"
   xmlns:rdf="http://www.w3.org/1999/02/22-rdf-syntax-ns#"
   xmlns:svg="http://www.w3.org/2000/svg"
   xmlns="http://www.w3.org/2000/svg"
   xmlns:sodipodi="http://sodipodi.sourceforge.net/DTD/sodipodi-0.dtd"
   xmlns:inkscape="http://www.inkscape.org/namespaces/inkscape"
   viewBox="0 0 16 16"
   id="svg2"
   version="1.1"
   inkscape:version="0.91 r13725"
   sodipodi:docname="indicator-keyboard-Zh.svg">
  <metadata
     id="metadata13">
    <rdf:RDF>
      <cc:Work
         rdf:about="">
        <dc:format>image/svg+xml</dc:format>
        <dc:type
           rdf:resource="http://purl.org/dc/dcmitype/StillImage" />
      </cc:Work>
    </rdf:RDF>
  </metadata>
  <defs
     id="defs11" />
  <sodipodi:namedview
     pagecolor="#ffffff"
     bordercolor="#666666"
     borderopacity="1"
     objecttolerance="10"
     gridtolerance="10"
     guidetolerance="10"
     inkscape:pageopacity="0"
     inkscape:pageshadow="2"
     inkscape:window-width="459"
     inkscape:window-height="369"
     id="namedview9"
     showgrid="false"
     inkscape:zoom="14.75"
     inkscape:cx="8"
     inkscape:cy="8"
     inkscape:window-x="65"
     inkscape:window-y="24"
     inkscape:window-maximized="0"
     inkscape:current-layer="svg2" />
  <path
     style="fill:#353535;fill-opacity:1"
     d="M 1.5996094 0 C 0.71320937 2.9605947e-16 0 0.71320937 0 1.5996094 L 0 14.400391 C 2.9605947e-16 15.286791 0.71320937 16 1.5996094 16 L 14.400391 16 C 15.286791 16 16 15.286791 16 14.400391 L 16 1.5996094 C 16 0.71320937 15.286791 0 14.400391 0 L 1.5996094 0 z M 9.5097656 4.5078125 L 9.5097656 6.9746094 C 9.7017656 6.9026094 9.8977031 6.8485 10.095703 6.8125 C 10.293703 6.7705 10.491453 6.7480469 10.689453 6.7480469 C 11.049453 6.7480469 11.349844 6.8003438 11.589844 6.9023438 C 11.829844 7.0043438 12.020062 7.15175 12.164062 7.34375 C 12.308063 7.52975 12.408891 7.7535781 12.462891 8.0175781 C 12.522891 8.2815781 12.552734 8.572625 12.552734 8.890625 L 12.552734 11.492188 L 11.966797 11.492188 L 11.966797 9.0800781 C 11.966797 8.7500781 11.942531 8.4701875 11.894531 8.2421875 C 11.852531 8.0141875 11.777922 7.8295469 11.669922 7.6855469 C 11.567922 7.5415469 11.429859 7.4389063 11.255859 7.3789062 C 11.081859 7.3129063 10.863609 7.2792969 10.599609 7.2792969 C 10.497609 7.2792969 10.385625 7.2886406 10.265625 7.3066406 C 10.151625 7.3246406 10.043406 7.3451406 9.9414062 7.3691406 C 9.8394063 7.3871406 9.7461094 7.4095938 9.6621094 7.4335938 C 9.5841094 7.4575938 9.5337656 7.4743281 9.5097656 7.4863281 L 9.5097656 11.492188 L 8.9257812 11.492188 L 8.9257812 4.6152344 L 9.5097656 4.5078125 z M 3.6191406 5.2558594 L 7.6953125 5.2558594 L 7.6953125 5.8125 C 7.5513125 5.9805 7.3834062 6.1857813 7.1914062 6.4257812 C 7.0054062 6.6657813 6.8058438 6.9287969 6.5898438 7.2167969 C 6.3738437 7.4987969 6.1518281 7.8029531 5.9238281 8.1269531 C 5.7018281 8.4449531 5.4798125 8.7676563 5.2578125 9.0976562 C 5.0418125 9.4216562 4.8347187 9.7425466 4.6367188 10.060547 C 4.4447187 10.378547 4.2692813 10.678937 4.1132812 10.960938 L 7.7851562 10.960938 L 7.7851562 11.492188 L 3.4472656 11.492188 L 3.4472656 11.033203 C 3.5792656 10.775203 3.7360156 10.4935 3.9160156 10.1875 C 4.1020156 9.8754997 4.2997656 9.5564219 4.5097656 9.2324219 C 4.7197656 8.9024219 4.9399688 8.5721875 5.1679688 8.2421875 C 5.3959687 7.9121875 5.6197969 7.5988281 5.8417969 7.2988281 C 6.0637969 6.9928281 6.2746563 6.7091719 6.4726562 6.4511719 C 6.6766562 6.1931719 6.8612969 5.9711562 7.0292969 5.7851562 L 3.6191406 5.7851562 L 3.6191406 5.2558594 z "
     id="path4" />
</svg>

<svg xmlns="http://www.w3.org/2000/svg" viewBox="0 0 16 16">
 <path d="m 1.6 0 c -0.886 0 -1.6 0.713 -1.6 1.6 l 0 12.801 c 0 0.886 0.713 1.6 1.6 1.6 l 12.801 0 c 0.886 0 1.6 -0.713 1.6 -1.6 l 0 -12.801 c 0 -0.886 -0.713 -1.6 -1.6 -1.6 l -12.801 0 z m 7.91 4.508 l 0 2.467 c 0.192 -0.072 0.388 -0.126 0.586 -0.162 c 0.198 -0.042 0.396 -0.064 0.594 -0.064 c 0.36 0 0.66 0.052 0.9 0.154 c 0.24 0.102 0.43 0.249 0.574 0.441 c 0.144 0.186 0.245 0.41 0.299 0.674 c 0.06 0.264 0.09 0.555 0.09 0.873 l 0 2.602 l -0.586 0 l 0 -2.412 c 0 -0.33 -0.024 -0.61 -0.072 -0.838 c -0.042 -0.228 -0.117 -0.413 -0.225 -0.557 c -0.102 -0.144 -0.24 -0.247 -0.414 -0.307 c -0.174 -0.066 -0.392 -0.1 -0.656 -0.1 c -0.102 0 -0.214 0.009 -0.334 0.027 c -0.114 0.018 -0.222 0.038 -0.324 0.063 c -0.102 0.018 -0.195 0.04 -0.279 0.064 c -0.078 0.024 -0.128 0.041 -0.152 0.053 l 0 4.01 l -0.584 0 l 0 -6.877 l 0.584 -0.107 z m -5.891 0.748 l 4.076 0 l 0 0.557 c -0.144 0.168 -0.312 0.373 -0.504 0.613 c -0.186 0.24 -0.386 0.503 -0.602 0.791 c -0.216 0.282 -0.438 0.586 -0.666 0.91 c -0.222 0.318 -0.444 0.641 -0.666 0.971 c -0.216 0.324 -0.423 0.645 -0.621 0.963 c -0.192 0.318 -0.367 0.618 -0.523 0.9 l 3.672 0 l 0 0.531 l -4.338 0 l 0 -0.459 c 0.132 -0.258 0.289 -0.54 0.469 -0.846 c 0.186 -0.312 0.384 -0.631 0.594 -0.955 c 0.21 -0.33 0.43 -0.66 0.658 -0.99 c 0.228 -0.33 0.452 -0.643 0.674 -0.943 c 0.222 -0.306 0.433 -0.59 0.631 -0.848 c 0.204 -0.258 0.389 -0.48 0.557 -0.666 l -3.41 0 l 0 -0.529 z" style="fill:#353535;fill-opacity:1"/>
</svg>
